svgs/thin/booth-curtain.svg

<svg xmlns="http://www.w3.org/2000/svg" viewBox="0 0 512 512"><!--! Font Awesome Pro 6.6.0 by @fontawesome - https://fontawesome.com License - https://fontawesome.com/license (Commercial License) Copyright 2024 Fonticons, Inc. --><path d="M16 40l0 464c0 4.4-3.6 8-8 8s-8-3.6-8-8L0 40C0 17.9 17.9 0 40 0L64 0l0 16L40 16C26.7 16 16 26.7 16 40zM432 16l0 384c0 17.7 14.3 32 32 32s32-14.3 32-32l0-360c0-13.3-10.7-24-24-24l-40 0zm64 419.8c-8.5 7.6-19.7 12.2-32 12.2c-16.7 0-31.4-8.5-40-21.5c-8.6 12.9-23.3 21.5-40 21.5s-31.4-8.5-40-21.5c-8.6 12.9-23.3 21.5-40 21.5s-31.4-8.5-40-21.5c-8.6 12.9-23.3 21.5-40 21.5s-31.4-8.5-40-21.5c-8.6 12.9-23.3 21.5-40 21.5c-26.5 0-48-21.5-48-48L96 32c0-17.7 14.3-32 32-32l48 0 16 0 64 0 16 0 64 0 16 0 64 0 16 0 40 0c22.1 0 40 17.9 40 40l0 360 0 104c0 4.4-3.6 8-8 8s-8-3.6-8-8l0-68.2zM128 16c-8.8 0-16 7.2-16 16l0 368c0 17.7 14.3 32 32 32s32-14.3 32-32l0-384-48 0zm64 0l0 384c0 17.7 14.3 32 32 32s32-14.3 32-32l0-384-64 0zm80 0l0 384c0 17.7 14.3 32 32 32s32-14.3 32-32l0-384-64 0zm80 0l0 384c0 17.7 14.3 32 32 32s32-14.3 32-32l0-384-64 0z"/></svg>

<svg xmlns="http://www.w3.org/2000/svg" viewBox="0 0 512 512"><!--! Font Awesome Pro 6.4.0 by @fontawesome - https://fontawesome.com License - https://fontawesome.com/license (Commercial License) Copyright 2023 Fonticons, Inc. --><path d="M16 40V504c0 4.4-3.6 8-8 8s-8-3.6-8-8V40C0 17.9 17.9 0 40 0H64V16H40C26.7 16 16 26.7 16 40zM432 16V400c0 17.7 14.3 32 32 32s32-14.3 32-32V40c0-13.3-10.7-24-24-24H432zm64 419.8c-8.5 7.6-19.7 12.2-32 12.2c-16.7 0-31.4-8.5-40-21.5c-8.6 12.9-23.3 21.5-40 21.5s-31.4-8.5-40-21.5c-8.6 12.9-23.3 21.5-40 21.5s-31.4-8.5-40-21.5c-8.6 12.9-23.3 21.5-40 21.5s-31.4-8.5-40-21.5c-8.6 12.9-23.3 21.5-40 21.5c-26.5 0-48-21.5-48-48V32c0-17.7 14.3-32 32-32h48 16 64 16 64 16 64 16 40c22.1 0 40 17.9 40 40V400 504c0 4.4-3.6 8-8 8s-8-3.6-8-8V435.8zM128 16c-8.8 0-16 7.2-16 16V400c0 17.7 14.3 32 32 32s32-14.3 32-32V16H128zm64 0V400c0 17.7 14.3 32 32 32s32-14.3 32-32V16H192zm80 0V400c0 17.7 14.3 32 32 32s32-14.3 32-32V16H272zm80 0V400c0 17.7 14.3 32 32 32s32-14.3 32-32V16H352z"/></svg>
